source/img/icon-video-subtitles.svg

<svg version="1.0" id="Layer_1" xmlns="http://www.w3.org/2000/svg" xmlns:xlink="http://www.w3.org/1999/xlink" x="0px" y="0px" width="32px" height="20px" viewBox="0 0 32 20" enable-background="new 0 0 32 20" xml:space="preserve">
  <path fill="#454545" d="M29,0H3C1.35,0,0,1.35,0,3v14c0,1.65,1.35,3,3,3h26c1.65,0,3-1.35,3-3V3C32,1.35,30.65,0,29,0z M14.403,15.854c-0.545,0.108-1.104,0.164-1.678,0.164c-0.694,0-1.354-0.107-1.976-0.323c-0.623-0.214-1.172-0.562-1.646-1.041 s-0.852-1.103-1.133-1.868C7.69,12.02,7.551,11.091,7.551,10c0-1.134,0.157-2.085,0.471-2.851c0.315-0.768,0.723-1.384,1.224-1.854  c0.502-0.468,1.062-0.804,1.679-1.008c0.616-0.204,1.233-0.307,1.852-0.307c0.66,0,1.22,0.045,1.678,0.134  c0.457,0.087,0.835,0.192,1.133,0.313L15.14,6.347c-0.254-0.121-0.555-0.209-0.902-0.265C13.891,6.027,13.47,6,12.973,6 c-0.915,0-1.649,0.325-2.206,0.977c-0.558,0.651-0.836,1.663-0.836,3.031c0,0.598,0.067,1.142,0.199,1.632  c0.132,0.493,0.334,0.913,0.603,1.26c0.271,0.349,0.607,0.619,1.01,0.812c0.402,0.193,0.867,0.29,1.396,0.29  c0.496,0,0.915-0.049,1.257-0.148c0.342-0.099,0.639-0.227,0.893-0.38l0.463,1.841C15.398,15.564,14.949,15.745,14.403,15.854z   M23.101,15.854c-0.545,0.108-1.105,0.164-1.678,0.164c-0.694,0-1.354-0.107-1.976-0.323c-0.623-0.214-1.172-0.562-1.646-1.041  s-0.852-1.103-1.133-1.868c-0.281-0.767-0.421-1.695-0.421-2.786c0-1.134,0.157-2.085,0.471-2.851  c0.314-0.768,0.723-1.384,1.223-1.854c0.502-0.468,1.062-0.804,1.68-1.008c0.616-0.204,1.233-0.307,1.851-0.307 c0.661,0,1.221,0.045,1.678,0.134c0.458,0.087,0.836,0.192,1.133,0.313l-0.446,1.918c-0.253-0.121-0.554-0.209-0.901-0.265  C22.588,6.027,22.166,6,21.67,6c-0.915,0-1.649,0.325-2.206,0.977c-0.558,0.651-0.836,1.663-0.836,3.031  c0,0.598,0.067,1.142,0.199,1.632c0.132,0.493,0.334,0.913,0.603,1.26c0.271,0.349,0.606,0.619,1.009,0.812 c0.402,0.193,0.868,0.29,1.396,0.29c0.497,0,0.915-0.049,1.257-0.148c0.342-0.099,0.64-0.227,0.894-0.38l0.463,1.841  C24.096,15.564,23.646,15.745,23.101,15.854z"/>
</svg>

<?xml version="1.0" encoding="UTF-8"?>
<svg width="32px" height="20px" viewBox="0 0 32 20" version="1.1" xmlns="http://www.w3.org/2000/svg" xmlns:xlink="http://www.w3.org/1999/xlink">
    <!-- Generator: Sketch 58 (84663) - https://sketch.com -->
    <title>icon-video-subtitles</title>
    <desc>Created with Sketch.</desc>
    <g id="Page-1" stroke="none" stroke-width="1" fill="none" fill-rule="evenodd">
        <g id="icon-video-subtitles" fill="#5C6870" fill-rule="nonzero">
            <path d="M29,0 L3,0 C1.35,0 0,1.35 0,3 L0,17 C0,18.65 1.35,20 3,20 L29,20 C30.65,20 32,18.65 32,17 L32,3 C32,1.35 30.65,0 29,0 Z M14.403,15.854 C13.858,15.962 13.299,16.018 12.725,16.018 C12.031,16.018 11.371,15.911 10.749,15.695 C10.126,15.481 9.577,15.133 9.103,14.654 C8.629,14.175 8.251,13.551 7.97,12.786 C7.69,12.02 7.551,11.091 7.551,10 C7.551,8.866 7.708,7.915 8.022,7.149 C8.337,6.381 8.745,5.765 9.246,5.295 C9.748,4.827 10.308,4.491 10.925,4.287 C11.541,4.083 12.158,3.98 12.777,3.98 C13.437,3.98 13.997,4.025 14.455,4.114 C14.912,4.201 15.29,4.306 15.588,4.427 L15.14,6.347 C14.886,6.226 14.585,6.138 14.238,6.082 C13.891,6.027 13.47,6 12.973,6 C12.058,6 11.324,6.325 10.767,6.977 C10.209,7.628 9.931,8.64 9.931,10.008 C9.931,10.606 9.998,11.15 10.13,11.64 C10.262,12.133 10.464,12.553 10.733,12.9 C11.004,13.249 11.34,13.519 11.743,13.712 C12.145,13.905 12.61,14.002 13.139,14.002 C13.635,14.002 14.054,13.953 14.396,13.854 C14.738,13.755 15.035,13.627 15.289,13.474 L15.752,15.315 C15.398,15.564 14.949,15.745 14.403,15.854 Z M23.101,15.854 C22.556,15.962 21.996,16.018 21.423,16.018 C20.729,16.018 20.069,15.911 19.447,15.695 C18.824,15.481 18.275,15.133 17.801,14.654 C17.327,14.175 16.949,13.551 16.668,12.786 C16.387,12.019 16.247,11.091 16.247,10 C16.247,8.866 16.404,7.915 16.718,7.149 C17.032,6.381 17.441,5.765 17.941,5.295 C18.443,4.827 19.003,4.491 19.621,4.287 C20.237,4.083 20.854,3.98 21.472,3.98 C22.133,3.98 22.693,4.025 23.15,4.114 C23.608,4.201 23.986,4.306 24.283,4.427 L23.837,6.345 C23.584,6.224 23.283,6.136 22.936,6.08 C22.588,6.027 22.166,6 21.67,6 C20.755,6 20.021,6.325 19.464,6.977 C18.906,7.628 18.628,8.64 18.628,10.008 C18.628,10.606 18.695,11.15 18.827,11.64 C18.959,12.133 19.161,12.553 19.43,12.9 C19.701,13.249 20.036,13.519 20.439,13.712 C20.841,13.905 21.307,14.002 21.835,14.002 C22.332,14.002 22.75,13.953 23.092,13.854 C23.434,13.755 23.732,13.627 23.986,13.474 L24.449,15.315 C24.096,15.564 23.646,15.745 23.101,15.854 Z" id="Shape"></path>
        </g>
    </g>
</svg>
